X: 55
T: Fang yang
L: 1/16
M: 1/4
K: D
d2 e fe4 [I:setbarnb 1]| 
B2 d BA4 | 
B2 B d A2 B F | 
E8 | 
D4 | 
[M:2/4]A2 B FE4 | 
A2 A Bd4 | 
A2 d B A2 B F | 
A8 |]

@@@ Tune index: 8929
